src/components/Icon/svg-icon/main/document.svg

<svg xmlns="http://www.w3.org/2000/svg" width="24" height="24"><path fill="#677078" d="M14 2H6c-1.1 0-1.99.9-1.99 2L4 20c0 1.1.89 2 1.99 2H18c1.1 0 2-.9 2-2V8l-6-6zm2 16H8v-2h8v2zm0-4H8v-2h8v2zm-3-5V3.5L18.5 9H13z"/></svg>

<svg xmlns="http://www.w3.org/2000/svg" width="24" height="24" viewBox="0 0 24 24">
  <path fill="#677078" d="M14,2 L6,2 C4.9,2 4.01,2.9 4.01,4 L4,20 C4,21.1 4.89,22 5.99,22 L18,22 C19.1,22 20,21.1 20,20 L20,8 L14,2 Z M16,18 L8,18 L8,16 L16,16 L16,18 Z M16,14 L8,14 L8,12 L16,12 L16,14 Z M13,9 L13,3.5 L18.5,9 L13,9 Z"/>
</svg>
